X: 18445
T: Hurling Boys, The
R: jig
M: 6/8
K: Gmajor
D||G2D GAB|d2B GAB|c2A AGA|B2G DEF|
G2D GAB|d2B G2g|fed AB^c|1 d3dcA:|2 (d3d2)||
|:f|e2d e2f|g2d B2G|BdB cde|d2B Ggf|
edc BcA|G2F E2D|E>EE EFG|D>DD Dgf|edc BcA|
G2F E2D|E>EE EFG|D>DD Dgf|edc BcA|(G3 G2):|

